X:1
T:The Swelling of Jordan
T:The Swelling of Jordan
T:Robert Lowry
T:Georgiana Amelia McLeod, 1880
T:Public Domain Courtesy of the Cyber Hymnal™
T:Public Domain Courtesy of the Cyber Hymnal™
C:Robert Lowry
Z:Public Domain
Z:Courtesy of the Cyber Hymnal™
%%score ( 1 2 ) ( 3 4 )
L:1/8
Q:1/4=95
M:2/4
K:Eb
V:1 treble 
V:2 treble 
V:3 bass 
V:4 bass 
V:1
 [EG]2 [EG]>[EG] | [GB]2 [FA][EG] | [DF]2 [DG]>[DF] | [DF]2 E2 | [EA]2 [EA]>[EA] | %5
w: 1.~What wilt thou|do in the|swell- ing of|Jor- dan,|Bold- ly re-|
w: 2.~This side the|riv- er, friends|near- est and|dear- est|Leave thee to|
w: 3.~But in thy|wan- derings He|fol- lows thee|ev- er,|Seek- ing to|
w: 4.~Life’s sun is|set- ting, and|dark- ness is|near- ing;|Too late to-|
 [EA]2 [EG]>[EG] | [EB]2 [DA][EG] | [DF]4 | [EG]2 [EG]>[EG] | [GB]2 [FA][EG] | [DF]2 [EG]>[FA] | %11
w: ject- ing the|Lamb that was|slain,|Scorn- ing the|grief in Geth-|sem- a- ne’s|
w: go on thy|jour- ney a-|lone;|If in the|val- ley of|sha- dow thou|
w: win thee by|night and by|day;|Hear His sweet|prom- ise, “I’ll|nev- er, no,|
w: mor- row thy|plead- ing may|be;|Tell Him thy|sor- row, and|trust Him, un-|
 [Ac]2 [GB]2 | [Ac]2 [Ac]>[Ac] | [GB]2 [EG]E | [DF]2 [DG]>[DF] | E4 ||"^Refrain" [EG]2 [EG]>[EG] | %17
w: gar- den,|Let- ting Him|suf- fer and|die all in|vain?||
w: fear- est,|Cling to the|hand of the|Cru- ci- fied|One.||
w: nev- er|Leave thee to|per- ish, for|I am the|Way.”||
w: fear- ing;|He who saved|sin- ners will|save ev- en|thee.||
 [Ec]2 [EG]>[EG] | [FB]2 [FB]>[FB] | [GB]2 [EG]2 | [EG]2 [FG]>[FG] | [EG]2 [EA]>[EA] | %22
w: |||||
w: |||||
w: |||||
w: |||||
 [EG]2 [DF]>[CE] | [CE]2 [=B,D]2 | [CE]2 [EG]>[EG] | [Ec]2 [EG]>[EG] | [FA]2 [DF]>[FA] | %27
w: |||||
w: |||||
w: |||||
w: |||||
 [FA]2 [EG]2 | [Ec]2 [Ad][Ad] | [Ge]4 | [Ac]2 [Ad][Ad] | [Ge]4 | [Ee]2 [Ed][Ec] | [EB]2 [FA][EG] | %34
w: |||||||
w: |||||||
w: |||||||
w: |||||||
 [DF]2 [DG]>[DF] |"^riten." [DF]2 E2 |] %36
w: ||
w: ||
w: ||
w: ||
V:2
 x4 | x4 | x4 | x2 E2 | x4 | x4 | x4 | x4 | x4 | x4 | x4 | x4 | x4 | x3 E | x4 | E4 || x4 | x4 | %18
 x4 | x4 | x4 | x4 | x4 | x4 | x4 | x4 | x4 | x4 | x4 | x4 | x4 | x4 | x4 | x4 | x4 | x2 E2 |] %36
V:3
 [E,B,]2 [E,B,]>[E,B,] | [E,B,]2 [D,B,][E,B,] | [B,,A,]2 [B,,A,]>[B,,A,] | [B,,A,]2 [E,G,]2 | %4
w: ~ ~ ~|~ ~ ~|~ ~ ~|~ ~|
 [A,,C]2 [A,,C]>[A,,C] | [E,C]2 [E,B,]>[E,B,] | [G,B,]2 [F,B,][E,B,] | [B,,B,]4 | %8
w: ~ ~ ~|~ ~ ~|~ ~ ~|~|
 [E,B,]2 [E,B,]>[E,B,] | [E,E]2 [D,B,][E,B,] | [B,,B,]2 [B,,B,]>[B,,D] | [E,E]2 [E,E]2 | %12
w: ~ ~ ~|~ ~ ~|~ ~ ~|~ ~|
 [A,,E]2 [A,,E]>[C,E] | [E,E]2 [E,B,][E,G,] | [B,,A,]2 [B,,B,]>[B,,A,] | [E,G,]4 || %16
w: ~ ~ ~|~ ~ ~|~ ~ ~|~|
 [C,C]2 [C,C]>[C,C] | [C,G,]2 [C,C]>[C,C] | [B,,D]2 [B,,D]>[B,,D] | [E,E]2 [E,B,]2 | %20
w: Soon in the|mid- night thy|soul He’ll be|call- ing;|
 [E,B,]2 [D,=B,]>[D,B,] | [C,C]2 [A,,C]>[A,,C] | [B,,B,]2 [B,,A,]>[C,G,] | [G,,G,]2 [G,,G,]2 | %24
w: Who then can|save thee from|dan- ger ap-|pall- ing?|
 [C,G,]2 [C,C]>[C,C] | [C,G,]2 [C,C]>[C,C] | [B,,D]2 [B,,B,]>[B,,B,] | [E,B,]2 [E,B,]2 | %28
w: Too late to|plead then for|mer- cy and|par- don!|
 A,2 [F,B,][F,B,] | (B,2 E2) | [A,E]2 [F,B,][F,B,] | (B,2 _D2) | [E,C]2 [E,B,][E,A,] | %33
w: What wilt thou|do? *|What wilt thou|do? *|What wilt thou|
 [E,G,]2 [D,B,][E,B,] | [B,,A,]2 [B,,B,]>[B,,A,] | [B,,A,]2 [E,G,]2 |] %36
w: do in the|swell- ing of|Jor- dan?|
V:4
 x4 | x4 | x4 | x4 | x4 | x4 | x4 | x4 | x4 | x4 | x4 | x4 | x4 | x4 | x4 | x4 || x4 | x4 | x4 | %19
 x4 | x4 | x4 | x4 | x4 | x4 | x4 | x4 | x4 | A,2 x2 | E,4 | x4 | E,4 | x4 | x4 | x4 | x4 |] %36

